X:1
T:Title
L:1/8
M:4/4
K:F
V:1 treble nm="Grand Piano"
V:1
 z4 z[Q:1/4=100] CCC | A2 A2 A>A cc | B A3- ACCC | A2 A2 AcBA | G4- GCCC | G2 G>G GGBB | %6
 A G3- GCCC | c2 c>c cBAG | F4- FFFF | B3 F BFBd | c A3- AFAc | B G3- GGAB | A c3- cFFF | %13
 B3 F BFBd | c A3- AFAc | B G2 G A2 =B2 |[M:5/8] c-c- c3 |[M:3/8] c=B_B |[M:4/4] A2 A2 A>A cc | %19
 B A3- ACCC | A2 A>A AcBA | G4- GCCC | G2 G2 G>G BB | A G3- GCCC | c2 c>c cBAG | F2 c>c cAGF | %26
 E2 c>c cBAG | F2 c>c cAGF | E2 c>c cBAG | F3 A F3 A | F3 A FAFA | F6 z2 |] %32

